!!!OTL: SAMMELT EUCH IN TRAUTE REIHN
!!!ARE: Europa, Mitteleuropa, Deutschland
!!!SCT: F0289
!!!YEM: Copyright 1995, estate of Helmut Schaffrath.
**kern
*ICvox
*Ivox
*M3/8
*k[]
*C:
=1
{8c
8e
8c
=2
4G
8G
=3
8c
8e
8c
=4
4G
8r}
=5
{4c
8G
=6
4A
8d
=7
8B
8A
8B
=8
4c
8r}
=9
{4d
8d
=10
4e
8c
=11
4B
8c
=12
8d
8B
8G}
=13
{8d
8c#
8d
=14
4e
8c
=15
4B
8c
=16
8d
8B
8G}
=17
{4c
8c
=18
4e
8e
=19
4A
8c
=20
4.f}
=21
{8f
8e
8d
=22
4c
8c
=23
8c
8d
8B
=24
4c
8r}
==
!!!AGN: Jugend - Lied, patriotisch, Neujahr
!!!ONB: ESAC (Essen Associative Code) Database: FINK
!!!AMT: simple triple
!!!AIN: vox
!!!EED: Helmut Schaffrath
!!!EEV: 1.0
*-
